Sources/FrostedUI/Resources/Icons.xcassets/downloadDocument16.imageset/download-document-16.svg

<svg width="16" height="16" viewBox="0 0 16 16" fill="none" xmlns="http://www.w3.org/2000/svg" data-fui-icon="true">
  <path
    d="M7.94629 0.25C8.53453 0.250104 9.08286 0.507567 9.47559 0.938477L13.1504 4.9707C13.541 5.39939 13.75 5.967 13.75 6.5459V13.4863C13.75 14.6693 12.8609 15.7498 11.6211 15.75H4.37891C3.13912 15.7498 2.25 14.6693 2.25 13.4863V2.51367C2.25 1.33075 3.13911 0.250235 4.37891 0.25H7.94629ZM4.37891 1.75C4.09544 1.75026 3.75 2.02517 3.75 2.51367V13.4863C3.75 13.9748 4.09543 14.2497 4.37891 14.25H11.6211C11.9046 14.2497 12.25 13.9749 12.25 13.4863V6.66895H9.89648C8.65649 6.66891 7.76758 5.58829 7.76758 4.40527V1.75H4.37891ZM8.16211 6.75C8.57611 6.75026 8.91211 7.08594 8.91211 7.5V10.5391L9.84473 9.60645C10.1375 9.31388 10.6124 9.31408 10.9053 9.60645C11.1981 9.89928 11.198 10.3741 10.9053 10.667L8.78906 12.7832C8.39852 13.1735 7.76544 13.1736 7.375 12.7832L5.42285 10.8301C5.12996 10.5372 5.12996 10.0624 5.42285 9.76953C5.71577 9.4769 6.19059 9.47672 6.4834 9.76953L7.41211 10.6982V7.5C7.41211 7.08579 7.7479 6.75 8.16211 6.75ZM9.26758 4.40527C9.26758 4.89398 9.61294 5.1689 9.89648 5.16895H11.3027L9.26758 2.93555V4.40527Z"
    fill="currentColor"
  />
</svg>

<svg xmlns="http://www.w3.org/2000/svg" width="16" height="16" fill="none" data-fui-icon="true" viewBox="0 0 16 16"><path fill="currentColor" d="M7.946.25a2.07 2.07 0 0 1 1.53.688l3.674 4.033c.391.428.6.996.6 1.575v6.94c0 1.183-.89 2.264-2.129 2.264H4.38c-1.24 0-2.129-1.08-2.129-2.264V2.514C2.25 1.33 3.14.25 4.379.25zM4.38 1.75c-.284 0-.629.275-.629.764v10.972c0 .489.345.764.629.764h7.242c.284 0 .629-.275.629-.764V6.67H9.896c-1.24 0-2.128-1.08-2.128-2.264V1.75zm3.783 5a.75.75 0 0 1 .75.75v3.04l.933-.934a.75.75 0 0 1 1.06 1.061L8.79 12.783a1 1 0 0 1-1.414 0L5.423 10.83a.75.75 0 1 1 1.06-1.06l.93.928V7.5a.75.75 0 0 1 .75-.75m1.106-2.345c0 .489.345.764.628.764h1.407L9.268 2.936z"/></svg>
